assets/icons/qvision/airline_seat_individual_suite.svg

<svg xmlns="http://www.w3.org/2000/svg" height="24" viewBox="0 0 24 24" width="24"><path d="M0 0h24v24H0V0z" fill="none"/><path d="M7 13c1.65 0 3-1.35 3-3S8.65 7 7 7s-3 1.35-3 3 1.35 3 3 3zm12-6h-8v7H3V7H1v10h22v-6c0-2.21-1.79-4-4-4z"/></svg>

<svg width="24" height="24" viewBox="0 0 24 24" fill="none" xmlns="http://www.w3.org/2000/svg">
<g clip-path="url(#clip0_147_5892)">
<path d="M7 13C8.65 13 10 11.65 10 10C10 8.35 8.65 7 7 7C5.35 7 4 8.35 4 10C4 11.65 5.35 13 7 13ZM19 7H11V14H3V7H1V17H23V11C23 8.79 21.21 7 19 7Z" fill="#323232"/>
</g>
<defs>
<clipPath id="clip0_147_5892">
<rect width="24" height="24" fill="white"/>
</clipPath>
</defs>
</svg>
